img/icons/corp2/3.svg

<svg width="43" height="51" viewBox="0 0 43 51" fill="none" xmlns="http://www.w3.org/2000/svg">
<path d="M35.5175 34.3745C34.9851 34.3745 34.5288 34.8278 34.5288 35.3567V38.832C34.3767 38.9075 34.2246 38.9075 34.0725 38.9831C33.8443 39.0586 33.6161 39.1342 33.388 39.2097C33.0077 39.3608 32.7795 39.4364 32.3993 39.4364C30.5739 39.5119 29.205 39.2097 27.6078 38.3787C27.4557 38.3031 27.2275 38.152 26.9994 38.0765C26.1628 37.6232 25.2501 37.0943 24.2614 36.9432C23.3488 36.7921 22.4361 36.8677 21.5995 36.8677C21.2192 36.8677 20.915 36.8677 20.6108 36.9432C19.7742 36.9432 18.2531 37.2454 16.2757 37.6232C14.2983 38.0009 12.0927 38.3787 10.0392 38.6053C6.16042 39.0586 3.19429 38.6809 1.90137 38.152V35.4322C1.90137 34.9034 1.44504 34.4501 0.912655 34.4501C0.380273 34.4501 0 34.7523 0 35.2811V45.4804C0 48.4269 2.43375 50.769 5.32382 50.769H31.1824C34.1485 50.769 36.5062 48.3513 36.5062 45.4804V35.2811C36.5062 34.7523 36.0499 34.3745 35.5175 34.3745Z" fill="#343434"/>
<path d="M10.6479 35.8098C13.3098 35.8098 15.4393 33.6944 15.4393 31.0501C15.4393 28.7081 12.0169 25.3083 11.3324 24.6283L10.6479 24.0239L9.96339 24.7039C9.2789 25.3838 5.85645 28.7836 5.85645 31.1257C5.85645 33.6944 7.98597 35.8098 10.6479 35.8098Z" fill="#343434"/>
<path d="M33.921 0.452188L6.69342 11.0293C5.40049 11.7092 5.85682 14.5046 6.76948 16.9222C7.75819 19.4154 9.43139 21.833 10.8004 21.3041C10.9525 21.2286 11.0285 21.153 11.1046 21.0775C11.1046 21.0775 11.1046 21.0775 11.1046 21.153C11.1046 21.153 11.1046 21.153 11.1046 21.2286L37.8758 10.8782C41.1462 9.59379 42.8194 6.26957 41.7546 3.47421C40.6898 0.527739 37.1153 -0.756619 33.921 0.452188ZM10.4962 20.3975C10.1919 20.5486 8.82295 19.4154 7.68213 16.5444C6.61737 13.7491 6.76948 12.0114 7.14975 11.8603C7.45397 11.7092 8.82295 12.8425 9.96377 15.7134C11.1046 18.5087 10.8764 20.2464 10.4962 20.3975ZM37.5716 9.896L11.713 19.8687C11.8651 18.6599 11.4849 16.9222 10.8764 15.2601C10.268 13.598 9.35533 12.087 8.36662 11.3315L34.2252 1.35879C36.9632 0.301087 39.9293 1.35879 40.8419 3.70086C41.8307 6.04292 40.3096 8.83829 37.5716 9.896Z" fill="#343434"/>
<path d="M34.0733 0.90565L20.2313 6.26973C21.0679 6.72304 19.775 10.2739 17.3412 14.127C15.592 16.9979 13.6906 19.2644 12.5498 20.0199L37.7239 10.2739C40.69 9.14065 42.2872 6.04308 41.2984 3.47437C40.3097 0.9812 37.0394 -0.227607 34.0733 0.90565Z" fill="#343434"/>
</svg>

<svg width="43" height="51" fill="none" xmlns="http://www.w3.org/2000/svg"><path d="M35.517 34.374c-.532 0-.988.454-.988.983v3.475c-.152.075-.304.075-.457.151l-.684.227c-.38.15-.608.226-.989.226-1.825.076-3.194-.226-4.791-1.057-.152-.076-.38-.227-.609-.302-.836-.454-1.749-.983-2.738-1.134-.912-.15-1.825-.075-2.662-.075-.38 0-.684 0-.988.075-.837 0-2.358.302-4.335.68-1.978.378-4.183.756-6.237.982-3.879.454-6.845.076-8.138-.453v-2.72c0-.529-.456-.982-.988-.982-.533 0-.913.302-.913.831v10.2c0 2.946 2.434 5.288 5.324 5.288h25.858c2.966 0 5.324-2.418 5.324-5.289V35.281c0-.529-.456-.907-.989-.907z" fill="#343434"/><path d="M10.648 35.81c2.662 0 4.791-2.116 4.791-4.76 0-2.342-3.422-5.742-4.107-6.422l-.684-.604-.685.68c-.684.68-4.107 4.08-4.107 6.422 0 2.568 2.13 4.684 4.792 4.684zM33.921.452L6.693 11.03c-1.293.68-.836 3.476.076 5.893.99 2.493 2.662 4.911 4.031 4.382.152-.075.228-.151.305-.226v.151l26.77-10.35c3.271-1.285 4.944-4.61 3.88-7.405C40.69.528 37.115-.756 33.92.452zM10.496 20.398c-.304.15-1.673-.983-2.814-3.854-1.065-2.795-.913-4.533-.532-4.684.304-.15 1.673.982 2.814 3.853 1.14 2.796.912 4.533.532 4.685zM37.572 9.896l-25.859 9.973c.152-1.21-.228-2.947-.837-4.609-.608-1.662-1.52-3.173-2.51-3.928l25.86-9.973c2.737-1.058 5.703 0 6.616 2.342.989 2.342-.532 5.137-3.27 6.195z" fill="#343434"/><path d="M34.073.906L20.231 6.27c.837.453-.456 4.004-2.89 7.857-1.749 2.87-3.65 5.137-4.791 5.893l25.174-9.746c2.966-1.133 4.563-4.23 3.574-6.8C40.31.981 37.04-.228 34.073.906z" fill="#343434"/></svg>
